X: 39786
T: That's Right Too!
R: reel
M: 4/4
K: Dmajor
D2FA FEED|d2ef edBA|D2FA FEED|BcdD FEED|
D2FA FEED|d2ef edfd|BDD2 Bdd2|1 AFEF D4:|2 AFEF D3b||
|:afef d3B|A2FD EDDb|afef d3f|(ef)aA Jf2fe|
d2ef edBA|BcdD FEED|BDD2 Bdd2|1 AFEF D3b:|2 AFED D4||

